!!!OTL: Salue Deus salue homo
**kern
*staff1
=1-
*clefF3
*k[b-]
*met(c|)
*M2/2
1F
2F\
2D/
=2
1A
2A\
1D
2E/
=3
2F\
2G\
1C
!!linebreak:original
=4:|!
2r
2F\
2F\
2F\
=5
1BB-
2F\
1BB-
2C/
2D/
2E/
=6
!LO:TX:Y=-33:t=P
2F\
2F\
2F\
2C/
=7
1E-
2F\
1BB-
2D/
1C
=8
0F
==
*-
!!title: @{OTL}, @{GTL}, ed. @{ENC}
!!!pag:
!!!GTL: Hymnbook D
!!!EFL: 
!!!YEM: Creative Commons CC/BY/NC/SA 4.0
!!!ENC: Marcin Konik
!!!END: 2015-0m-dd
!!!EED: Marcin Konik
!!!EEV: 
!!!ONB: Encoded in vim by Marcin Konik
!!!CharacterEncoding: utf-8
!!!RDF**kern: l=long note in original notation
!!!RDF**kern: i=editorial accidental
!!muse2ps: z14jc180F
!!!COM: Anonim
!!!CDT: [?]
!!!TXO: Polish
!!!ODT: 
!!!GTL: Hymnbook D
!!!ARL: Opactwo św. Wojciecha, Staniątki 
!!!voices:	1
